X:269
T:Laudnum Bunches - Headington
M:6/8
L:1/8
K:G
d | Bcd efg | age d2c | Bcd efg | b2a g2 :|
d | BAG BdB | ABG A2G/A/ | BdB AGA | BGe d2c |
Bcd efg | age d2c | Bcd efg | b2a g2 ||
d | BAG BdB |[ M:9/8]ABG A3 G2A |[ M:6/8]Bd-d B3 | A3 G2A |
[M:9/8]BG-G e3 d2c |[ M:6/8]Bcd efg | afe d2c | Bcd efg | b2a g2 ||
